americans/img/partner1.svg

<svg width="128" height="38" viewBox="0 0 128 38" fill="none" xmlns="http://www.w3.org/2000/svg">
<path fill-rule="evenodd" clip-rule="evenodd" d="M45.6304 15.047V29.7277H49.0853H52.5401L52.5406 24.0402C52.5407 20.3199 52.5589 18.2357 52.5931 18.0144C52.7531 16.977 53.2714 16.1517 54.0066 15.7634C54.5459 15.4785 55.361 15.4378 55.9305 15.6672C56.4894 15.8924 56.9965 16.5224 57.2507 17.3075L57.3869 17.728L57.4005 23.7279L57.4142 29.7277H60.8429H64.2718V22.9319C64.2718 18.5073 64.2534 15.9598 64.2192 15.6306C64.0617 14.1163 63.6379 12.8134 62.9382 11.6918C62.635 11.206 61.7548 10.287 61.2905 9.97176C60.6264 9.52077 59.8598 9.20186 59.0115 9.02361C58.6935 8.95681 58.3315 8.93266 57.6354 8.93188C56.826 8.93094 56.6163 8.94817 56.169 9.05219C54.8613 9.35631 53.8294 9.93303 52.9254 10.8648L52.5401 11.262V5.81416V0.366333H49.0853H45.6304V15.047ZM115.558 9.09992C113.649 13.9026 112.001 18.049 111.894 18.314L111.701 18.7958L115.833 18.7826L119.966 18.7692L123.325 10.2836C125.172 5.61649 126.811 1.47587 126.966 1.08215L127.249 0.366333L123.138 0.36701L119.028 0.367739L115.558 9.09992ZM30.4191 8.95759C28.2066 9.2371 26.1645 10.4226 24.6737 12.2931C23.1306 14.229 22.2169 16.9364 22.2169 19.5726C22.2169 22.947 23.5455 26.1434 25.7636 28.1051C26.8861 29.0979 28.25 29.7983 29.6393 30.0953C31.6971 30.5351 33.8479 30.1746 35.3901 29.1314C35.8169 28.8427 36.3177 28.3886 36.5335 28.0946C36.6292 27.9642 36.7242 27.8566 36.7447 27.8555C36.7653 27.8544 36.782 28.2752 36.782 28.7906V29.7277H40.0629H43.3438V19.5501V9.37256H40.0629H36.782V10.2905V11.2084L36.3916 10.8178C35.5087 9.93448 34.377 9.33539 33.0588 9.05354C32.5062 8.93536 31.022 8.88143 30.4191 8.95759ZM74.8103 8.96285C71.3034 9.33612 68.37 11.4079 66.8224 14.6045C66.0361 16.2288 65.6952 17.7544 65.694 19.6542C65.6928 21.4833 66.0116 22.9586 66.7398 24.4946C67.9563 27.0608 70.1963 28.9843 72.9262 29.8072C75.6291 30.6219 78.5952 30.3561 81.0297 29.0809C83.3345 27.8736 85.0688 25.8478 85.8942 23.3984C86.2976 22.2017 86.4629 21.1353 86.4625 19.7323C86.4621 18.2488 86.3171 17.2569 85.9147 15.9841C85.2207 13.7887 83.9518 12.0407 82.1177 10.7532C81.1665 10.0855 79.6795 9.43857 78.4737 9.16797C77.3956 8.92599 75.9284 8.84385 74.8103 8.96285ZM96.6331 8.98269C93.4699 9.35262 90.8377 11.0468 89.1925 13.7716C87.6984 16.246 87.2242 19.4883 87.93 22.4038C88.7182 25.6601 90.8671 28.2024 93.9015 29.4684C96.2795 30.4606 99.1419 30.5395 101.572 29.6798C104.228 28.7404 106.245 26.9267 107.396 24.4437C108.137 22.8439 108.471 21.1066 108.395 19.2378C108.245 15.5124 106.674 12.516 103.891 10.647C103.359 10.2898 102.215 9.72141 101.604 9.51072C100.058 8.97743 98.2867 8.78929 96.6331 8.98269ZM0.101806 9.61984C0.246115 9.9702 8.17246 29.5064 8.26074 29.7292L8.33352 29.9129L6.83137 33.5816L5.32918 37.2502L9.0133 37.2644C11.952 37.2757 12.7057 37.2651 12.7385 37.2123C12.7611 37.1759 15.258 30.9029 18.2872 23.2723L23.7949 9.39859L20.16 9.3851C18.1608 9.37771 16.5027 9.38063 16.4754 9.39156C16.4481 9.40249 15.4302 12.0493 14.2136 15.2732C12.9969 18.4973 11.9903 21.1352 11.9766 21.1353C11.963 21.1354 10.9675 18.4895 9.76452 15.2555L7.57728 9.37553L3.78866 9.37402L0 9.37256L0.101806 9.61984ZM33.8362 15.5483C36.8232 16.1974 37.9118 20.2714 35.7123 22.5695C34.9306 23.3863 34.0931 23.7385 32.9295 23.7396C31.816 23.7407 30.9168 23.3669 30.1299 22.5758C29.5696 22.0125 29.2053 21.3725 29.0252 20.635C28.9052 20.1436 28.8943 19.2293 29.002 18.693C29.4692 16.3668 31.5059 15.042 33.8362 15.5483ZM77.3585 15.709C77.9845 15.9374 78.3015 16.1525 78.8442 16.7167C79.27 17.1596 79.352 17.2762 79.5759 17.7581C79.9635 18.5922 80.1005 19.4015 79.9804 20.1471C79.7049 21.8581 78.5618 23.1976 77.0224 23.6135C76.526 23.7476 75.6608 23.7369 75.1363 23.5902C73.4155 23.1087 72.2766 21.5277 72.2754 19.6186C72.2742 17.5771 73.4154 16.0105 75.208 15.5928C75.4297 15.5411 75.7496 15.5227 76.2271 15.5338C76.8519 15.5484 76.9675 15.5663 77.3585 15.709ZM98.9988 15.6196C100.65 16.0567 101.824 17.5735 101.938 19.4188C102.053 21.2777 100.701 23.1671 98.9312 23.6203C98.4474 23.7442 97.5637 23.7316 97.0718 23.5938C96.0699 23.313 95.1964 22.607 94.6905 21.6691C94.6087 21.5175 94.4706 21.1778 94.3834 20.9143C94.2321 20.4568 94.2248 20.3985 94.2235 19.6282C94.2224 18.9383 94.2387 18.7614 94.3363 18.4084C94.7423 16.9403 95.7808 15.8947 97.1302 15.5954C97.6334 15.4839 98.5298 15.4955 98.9988 15.6196ZM113.062 20.6384C111.783 20.8989 110.71 21.6488 110.018 22.7664C109.01 24.3944 109.054 26.5528 110.129 28.1401C110.388 28.5219 110.973 29.1113 111.362 29.3806C111.729 29.6346 112.185 29.8514 112.648 29.9912C113.115 30.1321 114.083 30.1833 114.608 30.0947C115.725 29.9059 116.719 29.2963 117.435 28.3601C118.916 26.4248 118.741 23.6264 117.032 21.9156C116.175 21.0575 115.203 20.6312 114.007 20.5887C113.625 20.5752 113.285 20.5931 113.062 20.6384Z" fill="white"/>
</svg>

<svg width="128" height="38" fill="none" xmlns="http://www.w3.org/2000/svg"><path fill-rule="evenodd" clip-rule="evenodd" d="M45.63 15.047v14.68h6.91V24.04c0-3.72.019-5.804.053-6.026.16-1.037.678-1.862 1.414-2.25.539-.285 1.354-.326 1.924-.097.558.225 1.066.855 1.32 1.64l.136.421.014 6 .013 6h6.858v-6.796c0-4.425-.019-6.972-.053-7.301-.157-1.515-.581-2.818-1.28-3.94-.304-.485-1.184-1.404-1.648-1.72a6.354 6.354 0 0 0-2.28-.947c-.318-.067-.68-.091-1.376-.092-.809-.001-1.019.016-1.466.12-1.308.304-2.34.881-3.244 1.813l-.385.397V.366h-6.91v14.681ZM115.558 9.1c-1.909 4.803-3.557 8.949-3.664 9.214l-.193.482 4.132-.013 4.133-.014 3.359-8.485 3.641-9.202.283-.716-4.111.001h-4.11l-3.47 8.733Zm-85.139-.142c-2.212.28-4.255 1.465-5.745 3.335-1.543 1.936-2.457 4.643-2.457 7.28 0 3.374 1.329 6.57 3.547 8.532 1.122.993 2.486 1.693 3.875 1.99 2.058.44 4.209.08 5.751-.964.427-.288.928-.742 1.143-1.036.096-.13.191-.238.212-.24.02 0 .037.42.037.936v.937H43.344V9.373h-6.562v1.835l-.39-.39c-.883-.884-2.015-1.483-3.333-1.764-.553-.119-2.037-.173-2.64-.096Zm44.391.005c-3.507.373-6.44 2.445-7.988 5.642-.786 1.624-1.127 3.15-1.128 5.05-.001 1.828.318 3.304 1.046 4.84a10.034 10.034 0 0 0 6.186 5.312c2.703.815 5.67.55 8.104-.726a10.018 10.018 0 0 0 4.864-5.683c.404-1.196.569-2.263.569-3.666 0-1.483-.146-2.475-.548-3.748-.694-2.195-1.963-3.943-3.797-5.23-.951-.668-2.438-1.315-3.644-1.586-1.078-.242-2.546-.324-3.664-.205Zm21.823.02c-3.163.37-5.795 2.064-7.44 4.789-1.495 2.474-1.969 5.716-1.263 8.632.788 3.256 2.937 5.798 5.971 7.064 2.379.993 5.24 1.072 7.671.212 2.656-.94 4.673-2.753 5.824-5.236.741-1.6 1.075-3.337.999-5.206-.15-3.726-1.721-6.722-4.504-8.591-.532-.357-1.676-.926-2.287-1.136a11.486 11.486 0 0 0-4.97-.528ZM.102 9.62c.144.35 8.07 19.886 8.159 20.11l.073.183-1.503 3.669L5.33 37.25l3.684.014c2.939.012 3.693.001 3.726-.052.022-.036 2.519-6.31 5.548-13.94L23.795 9.4l-3.635-.014c-2-.007-3.657-.004-3.685.007-.027.01-1.045 2.657-2.261 5.881-1.217 3.224-2.224 5.862-2.237 5.862-.014 0-1.01-2.646-2.212-5.88l-2.188-5.88-3.788-.001L0 9.373l.102.247Zm33.734 5.928c2.987.65 4.076 4.723 1.876 7.022-.781.816-1.619 1.168-2.783 1.17-1.113 0-2.012-.373-2.8-1.164a4.068 4.068 0 0 1-1.104-1.941c-.12-.491-.13-1.406-.023-1.942.467-2.326 2.504-3.651 4.834-3.145Zm43.523.161c.626.228.943.444 1.485 1.008.426.443.508.56.732 1.041.388.834.525 1.643.404 2.39-.275 1.71-1.418 3.05-2.958 3.465-.496.135-1.361.124-1.886-.023-1.72-.481-2.86-2.062-2.86-3.971-.002-2.042 1.14-3.608 2.932-4.026.222-.052.542-.07 1.02-.06.624.015.74.033 1.13.176Zm21.64-.09c1.651.438 2.825 1.954 2.939 3.8.115 1.859-1.237 3.748-3.007 4.201-.484.124-1.367.112-1.86-.026a3.952 3.952 0 0 1-2.38-1.925 5.906 5.906 0 0 1-.308-.755c-.15-.457-.158-.516-.16-1.286 0-.69.016-.867.113-1.22.406-1.468 1.445-2.513 2.794-2.813.503-.111 1.4-.1 1.869.025Zm14.063 5.02a4.621 4.621 0 0 0-3.044 2.127c-1.008 1.628-.964 3.787.111 5.374.259.382.844.971 1.233 1.24.367.255.823.471 1.286.611.467.141 1.435.192 1.96.104 1.117-.19 2.111-.799 2.827-1.735 1.481-1.935 1.306-4.734-.403-6.444-.857-.858-1.829-1.285-3.025-1.327a4.396 4.396 0 0 0-.945.05Z" fill="#fff"/></svg>
